;FLAVOR:UltiGCode
;TIME:9275
;MATERIAL:45536
;MATERIAL2:0
;NOZZLE_DIAMETER:0.4
;MINX:46.7
;MINY:49.2
;MINZ:0.27
;MAXX:177.184
;MAXY:185.3
;MAXZ:5.07
;Generated with Cura_SteamEngine 4.12.1
M82 ;absolute extrusion mode
G0 F3000 Y50 ;avoid prime blob
G92 E0
G92 E0
G10
;LAYER_COUNT:17
;LAYER:0
M107
;MESH:stick.stl(10)
G0 F4320 X170.198 Y57.699 Z0.27
;TYPE:WALL-INNER
G11
G1 F3600 X170.689 Y57.776 E0.04697
G1 X171.4 Y57.887 E0.11497
G1 X172.111 Y57.776 E0.18297
G1 X172.602 Y57.699 E0.22994
G1 X173.686 Y57.146 E0.34494
G1 X174.546 Y56.286 E0.45987
G1 X175.099 Y55.203 E0.57478
G1 X175.288 Y54 E0.68986
G1 X175.099 Y52.797 E0.80494
G1 X174.546 Y51.714 E0.91985
G1 X173.686 Y50.854 E1.03479
G1 X172.602 Y50.301 E1.14978
G1 X172.111 Y50.224 E1.19675
G1 X171.4 Y50.113 E1.26475
G1 X170.689 Y50.224 E1.33276
G1 X170.198 Y50.301 E1.37972
G1 X169.114 Y50.854 E1.49472
G1 X168.254 Y51.714 E1.60966
G1 X167.701 Y52.798 E1.72465
G1 X167.513 Y54 E1.83962
G1 X167.701 Y55.202 E1.95459
G1 X168.254 Y56.286 E2.06959
G1 X169.114 Y57.146 E2.18452
G1 X170.198 Y57.699 E2.29952
G0 F4320 X170.68 Y58.125
G1 F3600 X47.375 Y58.125 E13.95184
G1 X47.375 Y49.875 E14.73147
G1 X170.68 Y49.875 E26.38379
G1 X171.4 Y49.875 E26.44098
G1 X172.12 Y49.875 E26.49818
G1 X175.625 Y49.875 E26.8294
G1 X175.625 Y54 E27.21921
G1 X175.625 Y58.125 E27.60902
G1 X172.12 Y58.125 E27.94025
G1 X171.4 Y58.125 E27.99744
G1 X170.68 Y58.125 E28.05463
G0 F4320 X170.307 Y57.362
G1 F3600 X171.4 Y57.533 E28.15917
G1 X172.493 Y57.362 E28.26372
G1 X173.478 Y56.859 E28.36823
G1 X174.259 Y56.078 E28.47261
G1 X174.762 Y55.093 E28.57713
G1 X174.934 Y54 E28.68169
G1 X174.762 Y52.907 E28.78625
G1 X174.259 Y51.922 E28.89076
G1 X173.478 Y51.141 E28.99514
G1 X172.493 Y50.638 E29.09966
G1 X171.4 Y50.467 E29.2042
G1 X170.307 Y50.638 E29.30875
G1 X169.322 Y51.141 E29.41326
G1 X168.541 Y51.922 E29.51764
G1 X168.038 Y52.907 E29.62215
G1 X167.867 Y54 E29.7267
G1 X168.038 Y55.093 E29.83124
G1 X168.541 Y56.078 E29.93576
G1 X169.322 Y56.859 E30.04014
G1 X170.307 Y57.362 E30.14465
G0 F4320 X170.277 Y57.457
G0 X175.905 Y58.405
G0 X175.975 Y58.475
G1 F3600 X47.025 Y58.475 E42.33043
G1 X47.025 Y49.525 E43.1762
G1 X175.975 Y49.525 E55.36198
G1 X175.975 Y58.475 E56.20775
G0 F4320 X176.3 Y58.8
;TYPE:WALL-OUTER
G1 F3600 X46.7 Y58.8 E68.45495
G1 X46.7 Y49.2 E69.36215
G1 X176.3 Y49.2 E81.60935
G1 X176.3 Y58.8 E82.51655
G0 F4320 X176.1 Y58.8
G0 X175.905 Y58.405
G0 X170.216 Y57.427
G0 X170.409 Y57.049
G1 F3600 X171.4 Y57.204 E82.61134
G1 X172.391 Y57.049 E82.70613
G1 X173.284 Y56.593 E82.80088
G1 X173.993 Y55.884 E82.89564
G1 X174.449 Y54.991 E82.99039
G1 X174.605 Y54 E83.08519
G1 X174.449 Y53.009 E83.18
G1 X173.993 Y52.116 E83.27475
G1 X173.284 Y51.407 E83.3695
G1 X172.391 Y50.951 E83.46426
G1 X171.4 Y50.796 E83.55905
G1 X170.409 Y50.951 E83.65383
G1 X169.516 Y51.407 E83.74859
G1 X168.807 Y52.116 E83.84334
G1 X168.351 Y53.009 E83.93809
G1 X168.196 Y54 E84.03288
G1 X168.351 Y54.991 E84.12767
G1 X168.807 Y55.884 E84.22242
G1 X169.516 Y56.593 E84.31718
G1 X170.409 Y57.049 E84.41193
G0 F4320 X170.606 Y57.079
G0 X170.54 Y57.498
G0 X169.618 Y57.785
;TYPE:SKIN
G1 F3600 X47.715 Y57.785 E95.93177
G1 X47.715 Y50.215 E96.64713
G1 X169.618 Y50.215 E108.16696
G1 X168.912 Y50.576 E108.2419
G1 X167.976 Y51.512 E108.36699
G1 X167.373 Y52.691 E108.49213
G1 X167.169 Y54 E108.61732
G1 X167.373 Y55.309 E108.74252
G1 X167.976 Y56.488 E108.86766
G1 X168.912 Y57.424 E108.99275
G1 X169.618 Y57.785 E109.06768
G0 F4320 X168.509 Y56.101
G0 X168 Y55.105
G0 X167.827 Y54
G0 X167.966 Y53.106
G0 X168.84 Y50.541
G0 X168.782 Y50.483
G1 F3600 X168.67 Y50.371 E109.08265
G0 F4320 X168.535 Y50.731
G1 F3600 X168.175 Y50.371 E109.13076
G0 F4320 X167.68 Y50.371
G1 F3600 X168.287 Y50.978 E109.21188
G0 F4320 X168.04 Y51.226
G1 F3600 X167.185 Y50.371 E109.32615
G0 F4320 X166.69 Y50.371
G1 F3600 X167.809 Y51.49 E109.47569
G0 F4320 X167.642 Y51.818
G1 F3600 X166.195 Y50.371 E109.66908
G0 F4320 X165.7 Y50.371
G1 F3600 X167.475 Y52.146 E109.90629
G0 F4320 X167.307 Y52.473
G1 F3600 X165.205 Y50.371 E110.18721
G0 F4320 X164.71 Y50.371
G1 F3600 X167.189 Y52.849 E110.51845
G0 F4320 X167.122 Y53.278
G1 F3600 X164.215 Y50.371 E110.90695
G0 F4320 X163.72 Y50.371
G1 F3600 X167.055 Y53.706 E111.35265
G0 F4320 X167.038 Y54.184
G1 F3600 X163.225 Y50.371 E111.86223
G0 F4320 X162.73 Y50.371
G1 F3600 X167.13 Y54.771 E112.45026
G0 F4320 X167.221 Y55.357
G1 F3600 X162.235 Y50.371 E113.1166
G0 F4320 X161.74 Y50.371
G1 F3600 X167.737 Y56.368 E113.91806
G1 X167.799 Y56.43
G0 F4320 X167.85 Y56.405
G0 X168.93 Y57.619
G0 X168.501 Y57.627
G1 F3600 X161.245 Y50.371 E114.88778
G0 F4320 X160.75 Y50.371
G1 F3600 X168.006 Y57.627 E115.85749
G0 F4320 X167.511 Y57.627
G1 F3600 X160.255 Y50.371 E116.82721
G0 F4320 X159.76 Y50.371
G1 F3600 X167.016 Y57.627 E117.79692
G0 F4320 X166.521 Y57.627
G1 F3600 X159.265 Y50.371 E118.76663
G0 F4320 X158.77 Y50.371
G1 F3600 X166.026 Y57.627 E119.73635
G0 F4320 X165.531 Y57.627
G1 F3600 X158.275 Y50.371 E120.70606
G0 F4320 X157.78 Y50.371
G1 F3600 X165.036 Y57.627 E121.67578
G0 F4320 X164.541 Y57.627
G1 F3600 X157.286 Y50.371 E122.64543
G0 F4320 X156.791 Y50.371
G1 F3600 X164.046 Y57.627 E123.61508
G0 F4320 X163.551 Y57.627
G1 F3600 X156.296 Y50.371 E124.58472
G0 F4320 X155.801 Y50.371
G1 F3600 X163.056 Y57.627 E125.55437
G0 F4320 X162.561 Y57.627
G1 F3600 X155.306 Y50.371 E126.52402
G0 F4320 X154.811 Y50.371
G1 F3600 X162.066 Y57.627 E127.49367
G0 F4320 X161.571 Y57.627
G1 F3600 X154.316 Y50.371 E128.46332
G0 F4320 X153.821 Y50.371
G1 F3600 X161.076 Y57.627 E129.43296
G0 F4320 X160.581 Y57.627
G1 F3600 X153.326 Y50.371 E130.40261
G0 F4320 X152.831 Y50.371
G1 F3600 X160.086 Y57.627 E131.37226
G0 F4320 X159.591 Y57.627
G1 F3600 X152.336 Y50.371 E132.34191
G0 F4320 X151.841 Y50.371
G1 F3600 X159.096 Y57.627 E133.31156
G0 F4320 X158.601 Y57.627
G1 F3600 X151.346 Y50.371 E134.28121
G0 F4320 X150.851 Y50.371
G1 F3600 X158.106 Y57.627 E135.25085
G0 F4320 X157.611 Y57.627
G1 F3600 X150.356 Y50.371 E136.2205
G0 F4320 X149.861 Y50.371
G1 F3600 X157.117 Y57.627 E137.19022
G0 F4320 X156.622 Y57.627
G1 F3600 X149.366 Y50.371 E138.15993
G0 F4320 X148.871 Y50.371
G1 F3600 X156.127 Y57.627 E139.12965
G0 F4320 X155.632 Y57.627
G1 F3600 X148.376 Y50.371 E140.09936
G0 F4320 X147.881 Y50.371
G1 F3600 X155.137 Y57.627 E141.06908
G0 F4320 X154.642 Y57.627
G1 F3600 X147.386 Y50.371 E142.03879
G0 F4320 X146.891 Y50.371
G1 F3600 X154.147 Y57.627 E143.00851
G0 F4320 X153.652 Y57.627
G1 F3600 X146.396 Y50.371 E143.97822
G0 F4320 X145.901 Y50.371
G1 F3600 X153.157 Y57.627 E144.94794
G0 F4320 X152.662 Y57.627
G1 F3600 X145.406 Y50.371 E145.91765
G0 F4320 X144.911 Y50.371
G1 F3600 X152.167 Y57.627 E146.88737
G0 F4320 X151.672 Y57.627
G1 F3600 X144.416 Y50.371 E147.85708
G0 F4320 X143.921 Y50.371
G1 F3600 X151.177 Y57.627 E148.8268
G0 F4320 X150.682 Y57.627
G1 F3600 X143.426 Y50.371 E149.79651
G0 F4320 X142.931 Y50.371
G1 F3600 X150.187 Y57.627 E150.76623
G0 F4320 X149.692 Y57.627
G1 F3600 X142.436 Y50.371 E151.73594
G0 F4320 X141.941 Y50.371
G1 F3600 X149.197 Y57.627 E152.70566
G0 F4320 X148.702 Y57.627
G1 F3600 X141.446 Y50.371 E153.67537
G0 F4320 X140.951 Y50.371
G1 F3600 X148.207 Y57.627 E154.64508
G0 F4320 X147.712 Y57.627
G1 F3600 X140.456 Y50.371 E155.6148
G0 F4320 X139.961 Y50.371
G1 F3600 X147.217 Y57.627 E156.58451
G0 F4320 X146.722 Y57.627
G1 F3600 X139.466 Y50.371 E157.55423
G0 F4320 X138.971 Y50.371
G1 F3600 X146.227 Y57.627 E158.52394
G0 F4320 X145.732 Y57.627
G1 F3600 X138.476 Y50.371 E159.49366
G0 F4320 X137.981 Y50.371
G1 F3600 X145.237 Y57.627 E160.46337
G0 F4320 X144.742 Y57.627
G1 F3600 X137.487 Y50.371 E161.43302
G0 F4320 X136.992 Y50.371
G1 F3600 X144.247 Y57.627 E162.40267
G0 F4320 X143.752 Y57.627
G1 F3600 X136.497 Y50.371 E163.37232
G0 F4320 X136.002 Y50.371
G1 F3600 X143.257 Y57.627 E164.34197
G0 F4320 X142.762 Y57.627
G1 F3600 X135.507 Y50.371 E165.31162
G0 F4320 X135.012 Y50.371
G1 F3600 X142.267 Y57.627 E166.28126
G0 F4320 X141.772 Y57.627
G1 F3600 X134.517 Y50.371 E167.25091
G0 F4320 X134.022 Y50.371
G1 F3600 X141.277 Y57.627 E168.22056
G0 F4320 X140.782 Y57.627
G1 F3600 X133.527 Y50.371 E169.19021
G0 F4320 X133.032 Y50.371
G1 F3600 X140.287 Y57.627 E170.15986
G0 F4320 X139.792 Y57.627
G1 F3600 X132.537 Y50.371 E171.1295
G0 F4320 X132.042 Y50.371
G1 F3600 X139.297 Y57.627 E172.09915
G0 F4320 X138.802 Y57.627
G1 F3600 X131.547 Y50.371 E173.0688
G0 F4320 X131.052 Y50.371
G1 F3600 X138.307 Y57.627 E174.03845
G0 F4320 X137.812 Y57.627
G1 F3600 X130.557 Y50.371 E175.0081
G0 F4320 X130.062 Y50.371
G1 F3600 X137.318 Y57.627 E175.97781
G0 F4320 X136.823 Y57.627
G1 F3600 X129.567 Y50.371 E176.94753
G0 F4320 X129.072 Y50.371
G1 F3600 X136.328 Y57.627 E177.91724
G0 F4320 X135.833 Y57.627
G1 F3600 X128.577 Y50.371 E178.88696
G0 F4320 X128.082 Y50.371
G1 F3600 X135.338 Y57.627 E179.85667
G0 F4320 X134.843 Y57.627
G1 F3600 X127.587 Y50.371 E180.82639
G0 F4320 X127.092 Y50.371
G1 F3600 X134.348 Y57.627 E181.7961
G0 F4320 X133.853 Y57.627
G1 F3600 X126.597 Y50.371 E182.76582
G0 F4320 X126.102 Y50.371
G1 F3600 X133.358 Y57.627 E183.73553
G0 F4320 X132.863 Y57.627
G1 F3600 X125.607 Y50.371 E184.70525
G0 F4320 X125.112 Y50.371
G1 F3600 X132.368 Y57.627 E185.67496
G0 F4320 X131.873 Y57.627
G1 F3600 X124.617 Y50.371 E186.64468
G0 F4320 X124.122 Y50.371
G1 F3600 X131.378 Y57.627 E187.61439
G0 F4320 X130.883 Y57.627
G1 F3600 X123.627 Y50.371 E188.58411
G0 F4320 X123.132 Y50.371
G1 F3600 X130.388 Y57.627 E189.55382
G0 F4320 X129.893 Y57.627
G1 F3600 X122.637 Y50.371 E190.52353
G0 F4320 X122.142 Y50.371
G1 F3600 X129.398 Y57.627 E191.49325
G0 F4320 X128.903 Y57.627
G1 F3600 X121.647 Y50.371 E192.46296
G0 F4320 X121.152 Y50.371
G1 F3600 X128.408 Y57.627 E193.43268
G0 F4320 X127.913 Y57.627
G1 F3600 X120.657 Y50.371 E194.40239
G0 F4320 X120.162 Y50.371
G1 F3600 X127.418 Y57.627 E195.37211
G0 F4320 X126.923 Y57.627
G1 F3600 X119.667 Y50.371 E196.34182
G0 F4320 X119.172 Y50.371
G1 F3600 X126.428 Y57.627 E197.31154
G0 F4320 X125.933 Y57.627
G1 F3600 X118.677 Y50.371 E198.28125
G0 F4320 X118.182 Y50.371
G1 F3600 X125.438 Y57.627 E199.25097
G0 F4320 X124.943 Y57.627
G1 F3600 X117.688 Y50.371 E200.22062
G0 F4320 X117.193 Y50.371
G1 F3600 X124.448 Y57.627 E201.19027
G0 F4320 X123.953 Y57.627
G1 F3600 X116.698 Y50.371 E202.15991
G0 F4320 X116.203 Y50.371
G1 F3600 X123.458 Y57.627 E203.12956
G0 F4320 X122.963 Y57.627
G1 F3600 X115.708 Y50.371 E204.09921
G0 F4320 X115.213 Y50.371
G1 F3600 X122.468 Y57.627 E205.06886
G0 F4320 X121.973 Y57.627
G1 F3600 X114.718 Y50.371 E206.03851
G0 F4320 X114.223 Y50.371
G1 F3600 X121.478 Y57.627 E207.00815
G0 F4320 X120.983 Y57.627
G1 F3600 X113.728 Y50.371 E207.9778
G0 F4320 X113.233 Y50.371
G1 F3600 X120.488 Y57.627 E208.94745
G0 F4320 X119.993 Y57.627
G1 F3600 X112.738 Y50.371 E209.9171
G0 F4320 X112.243 Y50.371
G1 F3600 X119.498 Y57.627 E210.88675
G0 F4320 X119.003 Y57.627
G1 F3600 X111.748 Y50.371 E211.85639
G0 F4320 X111.253 Y50.371
G1 F3600 X118.508 Y57.627 E212.82604
G0 F4320 X118.014 Y57.627
G1 F3600 X110.758 Y50.371 E213.79576
G0 F4320 X110.263 Y50.371
G1 F3600 X117.519 Y57.627 E214.76547
G0 F4320 X117.024 Y57.627
G1 F3600 X109.768 Y50.371 E215.73519
G0 F4320 X109.273 Y50.371
G1 F3600 X116.529 Y57.627 E216.7049
G0 F4320 X116.034 Y57.627
G1 F3600 X108.778 Y50.371 E217.67462
G0 F4320 X108.283 Y50.371
G1 F3600 X115.539 Y57.627 E218.64433
G0 F4320 X115.044 Y57.627
G1 F3600 X107.788 Y50.371 E219.61405
G0 F4320 X107.293 Y50.371
G1 F3600 X114.549 Y57.627 E220.58376
G0 F4320 X114.054 Y57.627
G1 F3600 X106.798 Y50.371 E221.55348
G0 F4320 X106.303 Y50.371
G1 F3600 X113.559 Y57.627 E222.52319
G0 F4320 X113.064 Y57.627
G1 F3600 X105.808 Y50.371 E223.49291
G0 F4320 X105.313 Y50.371
G1 F3600 X112.569 Y57.627 E224.46262
G0 F4320 X112.074 Y57.627
G1 F3600 X104.818 Y50.371 E225.43234
G0 F4320 X104.323 Y50.371
G1 F3600 X111.579 Y57.627 E226.40205
G0 F4320 X111.084 Y57.627
G1 F3600 X103.828 Y50.371 E227.37177
G0 F4320 X103.333 Y50.371
G1 F3600 X110.589 Y57.627 E228.34148
G0 F4320 X110.094 Y57.627
G1 F3600 X102.838 Y50.371 E229.3112
G0 F4320 X102.343 Y50.371
G1 F3600 X109.599 Y57.627 E230.28091
G0 F4320 X109.104 Y57.627
G1 F3600 X101.848 Y50.371 E231.25063
G0 F4320 X101.353 Y50.371
G1 F3600 X108.609 Y57.627 E232.22034
G0 F4320 X108.114 Y57.627
G1 F3600 X100.858 Y50.371 E233.19006
G0 F4320 X100.363 Y50.371
G1 F3600 X107.619 Y57.627 E234.15977
G0 F4320 X107.124 Y57.627
G1 F3600 X99.868 Y50.371 E235.12949
G0 F4320 X99.373 Y50.371
G1 F3600 X106.629 Y57.627 E236.0992
G0 F4320 X106.134 Y57.627
G1 F3600 X98.878 Y50.371 E237.06892
G0 F4320 X98.384 Y50.371
G1 F3600 X105.639 Y57.627 E238.03856
G0 F4320 X105.144 Y57.627
G1 F3600 X97.889 Y50.371 E239.00821
G0 F4320 X97.394 Y50.371
G1 F3600 X104.649 Y57.627 E239.97786
G0 F4320 X104.154 Y57.627
G1 F3600 X96.899 Y50.371 E240.94751
G0 F4320 X96.404 Y50.371
G1 F3600 X103.659 Y57.627 E241.91716
G0 F4320 X103.164 Y57.627
G1 F3600 X95.909 Y50.371 E242.8868
G0 F4320 X95.414 Y50.371
G1 F3600 X102.669 Y57.627 E243.85645
G0 F4320 X102.174 Y57.627
G1 F3600 X94.919 Y50.371 E244.8261
G0 F4320 X94.424 Y50.371
G1 F3600 X101.679 Y57.627 E245.79575
G0 F4320 X101.184 Y57.627
G1 F3600 X93.929 Y50.371 E246.7654
G0 F4320 X93.434 Y50.371
G1 F3600 X100.689 Y57.627 E247.73505
G0 F4320 X100.194 Y57.627
G1 F3600 X92.939 Y50.371 E248.70469
G0 F4320 X92.444 Y50.371
G1 F3600 X99.699 Y57.627 E249.67434
G0 F4320 X99.204 Y57.627
G1 F3600 X91.949 Y50.371 E250.64399
G0 F4320 X91.454 Y50.371
G1 F3600 X98.709 Y57.627 E251.61364
G0 F4320 X98.215 Y57.627
G1 F3600 X90.959 Y50.371 E252.58335
G0 F4320 X90.464 Y50.371
G1 F3600 X97.72 Y57.627 E253.55307
G0 F4320 X97.225 Y57.627
G1 F3600 X89.969 Y50.371 E254.52278
G0 F4320 X89.474 Y50.371
G1 F3600 X96.73 Y57.627 E255.4925
G0 F4320 X96.235 Y57.627
G1 F3600 X88.979 Y50.371 E256.46221
G0 F4320 X88.484 Y50.371
G1 F3600 X95.74 Y57.627 E257.43193
G0 F4320 X95.245 Y57.627
G1 F3600 X87.989 Y50.371 E258.40164
G0 F4320 X87.494 Y50.371
G1 F3600 X94.75 Y57.627 E259.37136
G0 F4320 X94.255 Y57.627
G1 F3600 X86.999 Y50.371 E260.34107
G0 F4320 X86.504 Y50.371
G1 F3600 X93.76 Y57.627 E261.31079
G0 F4320 X93.265 Y57.627
G1 F3600 X86.009 Y50.371 E262.2805
G0 F4320 X85.514 Y50.371
G1 F3600 X92.77 Y57.627 E263.25022
G0 F4320 X92.275 Y57.627
G1 F3600 X85.019 Y50.371 E264.21993
G0 F4320 X84.524 Y50.371
G1 F3600 X91.78 Y57.627 E265.18965
G0 F4320 X91.285 Y57.627
G1 F3600 X84.029 Y50.371 E266.15936
G0 F4320 X83.534 Y50.371
G1 F3600 X90.79 Y57.627 E267.12908
G0 F4320 X90.295 Y57.627
G1 F3600 X83.039 Y50.371 E268.09879
G0 F4320 X82.544 Y50.371
G1 F3600 X89.8 Y57.627 E269.06851
G0 F4320 X89.305 Y57.627
G1 F3600 X82.049 Y50.371 E270.03822
G0 F4320 X81.554 Y50.371
G1 F3600 X88.81 Y57.627 E271.00794
G0 F4320 X88.315 Y57.627
G1 F3600 X81.059 Y50.371 E271.97765
G0 F4320 X80.564 Y50.371
G1 F3600 X87.82 Y57.627 E272.94737
G0 F4320 X87.325 Y57.627
G1 F3600 X80.069 Y50.371 E273.91708
G0 F4320 X79.574 Y50.371
G1 F3600 X86.83 Y57.627 E274.8868
G0 F4320 X86.335 Y57.627
G1 F3600 X79.079 Y50.371 E275.85651
G0 F4320 X78.585 Y50.371
G1 F3600 X85.84 Y57.627 E276.82616
G0 F4320 X85.345 Y57.627
G1 F3600 X78.09 Y50.371 E277.79581
G0 F4320 X77.595 Y50.371
G1 F3600 X84.85 Y57.627 E278.76545
G0 F4320 X84.355 Y57.627
G1 F3600 X77.1 Y50.371 E279.7351
G0 F4320 X76.605 Y50.371
G1 F3600 X83.86 Y57.627 E280.70475
G0 F4320 X83.365 Y57.627
G1 F3600 X76.11 Y50.371 E281.6744
G0 F4320 X75.615 Y50.371
G1 F3600 X82.87 Y57.627 E282.64405
G0 F4320 X82.375 Y57.627
G1 F3600 X75.12 Y50.371 E283.6137
G0 F4320 X74.625 Y50.371
G1 F3600 X81.88 Y57.627 E284.58334
G0 F4320 X81.385 Y57.627
G1 F3600 X74.13 Y50.371 E285.55299
G0 F4320 X73.635 Y50.371
G1 F3600 X80.89 Y57.627 E286.52264
G0 F4320 X80.395 Y57.627
G1 F3600 X73.14 Y50.371 E287.49229
G0 F4320 X72.645 Y50.371
G1 F3600 X79.9 Y57.627 E288.46194
G0 F4320 X79.405 Y57.627
G1 F3600 X72.15 Y50.371 E289.43158
G0 F4320 X71.655 Y50.371
G1 F3600 X78.91 Y57.627 E290.40123
G0 F4320 X78.416 Y57.627
G1 F3600 X71.16 Y50.371 E291.37095
G0 F4320 X70.665 Y50.371
G1 F3600 X77.921 Y57.627 E292.34066
G0 F4320 X77.426 Y57.627
